app/assets/images/makers/Icon.svg

<?xml version="1.0" encoding="UTF-8"?>
<svg fill="none" version="1.1" viewBox="0 0 512 512" xmlns="http://www.w3.org/2000/svg" xmlns:cc="http://creativecommons.org/ns#" xmlns:dc="http://purl.org/dc/elements/1.1/" xmlns:rdf="http://www.w3.org/1999/02/22-rdf-syntax-ns#">
  <metadata>
    <rdf:RDF>
      <cc:Work rdf:about="">
        <dc:format>image/svg+xml</dc:format>
        <dc:type rdf:resource="http://purl.org/dc/dcmitype/StillImage"/>
      </cc:Work>
    </rdf:RDF>
  </metadata>
  <title>Animation</title>
  <g transform="matrix(.37647 0 0 .37647 -143.06 -98.447)" fill="#000">
    <g fill="#000">
      <g fill="#000">
        <path d="m380 1482v-43h643 643v43 43h-643-643v-43z"/>
        <path d="m555 741v-218h19.5 19.5v6.481 6.481s4.75-0.648 4.75-0.648c2.612-0.355 183.18-25.213 401.25-55.239 0 0 396.5-54.593 396.5-54.593s0.31-3.741 0.31-3.741 0.31-3.741 0.31-3.741h45.44 45.44v50.5 50.5h-45.5-45.5v-41.5c0-40.706-0.04-41.5-1.98-41.5-1.66 0-786.05 107.81-797.27 109.58 0 0-3.75 0.592-3.75 0.592v206.41 206.41h-19.5-19.5v-218z"/>
        <path d="m1630 802.5v-109.5h12 12v109.5 109.5h-12-12v-109.5z"/>
        <path d="m1666 802.5v-139.5h37 37v139.5 139.5h-37-37v-139.5z"/>
        <path d="m1362 400v-7h80.5 80.5v7 7h-80.5-80.5v-7z"/>
        <path d="m516 1303.5v-11.5h58.5 58.5v11.5 11.5h-58.5-58.5v-11.5z"/>
        <path d="m380.01 1411.2c0.017-20.54 3.003-35.27 9.468-46.71 9.332-16.53 23.635-27.87 42.54-33.72l7.484-2.32 1178.4-0.52 0.32 2.18c0.2 1.35 1.45 2.58 3.32 3.26 12.73 4.6 27.99 17.79 34.75 30.04 6.89 12.5 8.83 20.74 9.48 40.29l0.57 17.25h-643.15-643.15l8e-3 -9.75z"/>
        <path d="m1362 537v-7h80.5 80.5v7 7h-80.5-80.5v-7z"/>
        <path d="m1153 1106.5v-198.5h-213.5-213.5v35.776c0 19.677-0.465 39.59-1.033 44.25-2.16 17.704-8.277 30.404-20.505 42.554-9.169 9.11-16.248 13.57-27.345 17.23-7.271 2.39-8.947 2.52-36.867 2.94l-29.25 0.43v55.41 55.41h-8.458-8.458s-0.292 51.75-0.292 51.75-0.292 51.75-0.292 51.75-2.667 3.86-2.667 3.86c-4.236 6.13-8.159 8.07-16.333 8.09-8.037 0.02-12.38-2.17-16.578-8.37l-2.422-3.58s-0.292-51.75-0.292-51.75-0.292-51.75-0.292-51.75h-8.458-8.458v-55.41-55.41l-28.75-0.42c-28.058-0.41-28.927-0.48-36.121-3.07-21.741-7.82-36.738-22.77-44.866-44.73l-2.763-7.46v-179-179s2.628-8.117 2.628-8.117c6.038-18.648 18.813-33.835 35.24-41.892 14.541-7.132 17.522-7.644 47.882-8.227l26.75-0.513v198.62 198.62h36.5 36.5v-198.5-198.5h408 408v-12.5-12.5h15.5 15.5v12.42 12.42l50.25 0.408c48.23 0.392 50.54 0.497 57.58 2.606 24.33 7.293 40.66 23.14 48.89 47.439 0 0 2.78 8.207 2.78 8.207l0.26 333.75 0.27 333.75h-232.52-232.51v-198.5z"/>
        <path d="m1427 370.5v-12.5h15.5 15.5v12.5 12.5h-15.5-15.5v-12.5z"/>
      </g>
    </g>
  </g>
</svg>

<svg xmlns:dc="http://purl.org/dc/elements/1.1/" width="512" xmlns:inkscape="http://www.inkscape.org/namespaces/inkscape" xmlns:sodipodi="http://sodipodi.sourceforge.net/DTD/sodipodi-0.dtd" xmlns:xlink="http://www.w3.org/1999/xlink" version="1.1" height="512" style="fill:none;stroke:none;" viewBox="0 0 512 512" xmlns="http://www.w3.org/2000/svg" xmlns:svg="http://www.w3.org/2000/svg" inkscape:export-xdpi="96" inkscape:export-ydpi="96" xmlns:cc="http://creativecommons.org/ns#" xmlns:osb="http://www.openswatchbook.org/uri/2009/osb" xmlns:rdf="http://www.w3.org/1999/02/22-rdf-syntax-ns#">
    <defs/>
    <sodipodi:namedview bordercolor="#666666" inkscape:pagecheckerboard="true" inkscape:document-units="px" pagecolor="#ffffff" borderlayer="true"/>
    <title>Animation</title>
    <g id="MainComposition_b9615f80294443eeab3f61baa450b7ce" inkscape:label="Animation" inkscape:groupmode="layer">
        <g transform="matrix(0.249958, 0, 0, 0.249958, 0, 0)" id="Group_26bf6afa9c1e474e9e24809c3f8b0075" opacity="1" inkscape:label="Traced Image">
            <g transform="matrix(1, 0, 0, 1, 0, 0)" id="Group_2372f73708cf42238dd27ff86d769a08" opacity="1" inkscape:label="#0084ff">
                <g id="Fill_ceb1cad89f4f477483875d29bf977264" style="" fill="#0084ff" inkscape:label="Fill" fill-opacity="1">
                    <path sodipodi:nodetypes="cccccccc" style="" d="M 380,1482 C 380,1482 380,1439 380,1439 380,1439 1023,1439 1023,1439 1023,1439 1666,1439 1666,1439 1666,1439 1666,1482 1666,1482 1666,1482 1666,1525 1666,1525 1666,1525 1023,1525 1023,1525 1023,1525 380,1525 380,1525 380,1525 380,1482 380,1482 Z"/>
                    <path sodipodi:nodetypes="ccccccccccccccccccccccccc" style="" d="M 555,741 C 555,741 555,523 555,523 555,523 574.5,523 574.5,523 574.5,523 594,523 594,523 594,523 594,529.481 594,529.481 594,529.481 594,535.962 594,535.962 594,535.962 598.75,535.314 598.75,535.314 601.362,534.959 781.925,510.101 1000,480.075 1000,480.075 1396.5,425.482 1396.5,425.482 1396.5,425.482 1396.81,421.741 1396.81,421.741 1396.81,421.741 1397.12,418 1397.12,418 1397.12,418 1442.56,418 1442.56,418 1442.56,418 1488,418 1488,418 1488,418 1488,468.5 1488,468.5 1488,468.5 1488,519 1488,519 1488,519 1442.5,519 1442.5,519 1442.5,519 1397,519 1397,519 1397,519 1397,477.5 1397,477.5 1397,436.794 1396.96,436 1395.02,436 1393.36,436 608.968,543.814 597.75,545.584 597.75,545.584 594,546.176 594,546.176 594,546.176 594,752.588 594,752.588 594,752.588 594,959 594,959 594,959 574.5,959 574.5,959 574.5,959 555,959 555,959 555,959 555,741 555,741 Z"/>
                    <path sodipodi:nodetypes="cccccccc" style="" d="M 1630,802.5 C 1630,802.5 1630,693 1630,693 1630,693 1642,693 1642,693 1642,693 1654,693 1654,693 1654,693 1654,802.5 1654,802.5 1654,802.5 1654,912 1654,912 1654,912 1642,912 1642,912 1642,912 1630,912 1630,912 1630,912 1630,802.5 1630,802.5 Z"/>
                    <path sodipodi:nodetypes="cccccccc" style="" d="M 1666,802.5 C 1666,802.5 1666,663 1666,663 1666,663 1703,663 1703,663 1703,663 1740,663 1740,663 1740,663 1740,802.5 1740,802.5 1740,802.5 1740,942 1740,942 1740,942 1703,942 1703,942 1703,942 1666,942 1666,942 1666,942 1666,802.5 1666,802.5 Z"/>
                    <path sodipodi:nodetypes="cccccccc" style="" d="M 1362,400 C 1362,400 1362,393 1362,393 1362,393 1442.5,393 1442.5,393 1442.5,393 1523,393 1523,393 1523,393 1523,400 1523,400 1523,400 1523,407 1523,407 1523,407 1442.5,407 1442.5,407 1442.5,407 1362,407 1362,407 1362,407 1362,400 1362,400 Z"/>
                    <path sodipodi:nodetypes="cccccccc" style="" d="M 516,1303.5 C 516,1303.5 516,1292 516,1292 516,1292 574.5,1292 574.5,1292 574.5,1292 633,1292 633,1292 633,1292 633,1303.5 633,1303.5 633,1303.5 633,1315 633,1315 633,1315 574.5,1315 574.5,1315 574.5,1315 516,1315 516,1315 516,1315 516,1303.5 516,1303.5 Z"/>
                    <path sodipodi:nodetypes="ccccccccccccc" style="" d="M 380.008,1411.25 C 380.025,1390.71 383.011,1375.98 389.476,1364.54 398.808,1348.01 413.111,1336.67 432.016,1330.82 432.016,1330.82 439.5,1328.5 439.5,1328.5 439.5,1328.5 1028.68,1328.24 1028.68,1328.24 1028.68,1328.24 1617.86,1327.98 1617.86,1327.98 1617.86,1327.98 1618.18,1330.16 1618.18,1330.16 1618.38,1331.51 1619.63,1332.74 1621.5,1333.42 1634.23,1338.02 1649.49,1351.21 1656.25,1363.46 1663.14,1375.96 1665.08,1384.2 1665.73,1403.75 1665.73,1403.75 1666.3,1421 1666.3,1421 1666.3,1421 1023.15,1421 1023.15,1421 1023.15,1421 380,1421 380,1421 380,1421 380.008,1411.25 380.008,1411.25 Z"/>
                    <path sodipodi:nodetypes="cccccccc" style="" d="M 1362,537 C 1362,537 1362,530 1362,530 1362,530 1442.5,530 1442.5,530 1442.5,530 1523,530 1523,530 1523,530 1523,537 1523,537 1523,537 1523,544 1523,544 1523,544 1442.5,544 1442.5,544 1442.5,544 1362,544 1362,544 1362,544 1362,537 1362,537 Z"/>
                    <path sodipodi:nodetypes="cccccccccccccccccccccccccccccccccccccccccccccccccccccccccc" style="" d="M 1153,1106.5 C 1153,1106.5 1153,908 1153,908 1153,908 939.5,908 939.5,908 939.5,908 726,908 726,908 726,908 726,943.776 726,943.776 726,963.453 725.535,983.366 724.967,988.026 722.807,1005.73 716.69,1018.43 704.462,1030.58 695.293,1039.69 688.214,1044.15 677.117,1047.81 669.846,1050.2 668.17,1050.33 640.25,1050.75 640.25,1050.75 611,1051.18 611,1051.18 611,1051.18 611,1106.59 611,1106.59 611,1106.59 611,1162 611,1162 611,1162 602.542,1162 602.542,1162 602.542,1162 594.084,1162 594.084,1162 594.084,1162 593.792,1213.75 593.792,1213.75 593.792,1213.75 593.5,1265.5 593.5,1265.5 593.5,1265.5 590.833,1269.36 590.833,1269.36 586.597,1275.49 582.674,1277.43 574.5,1277.45 566.463,1277.47 562.12,1275.28 557.922,1269.08 557.922,1269.08 555.5,1265.5 555.5,1265.5 555.5,1265.5 555.208,1213.75 555.208,1213.75 555.208,1213.75 554.916,1162 554.916,1162 554.916,1162 546.458,1162 546.458,1162 546.458,1162 538,1162 538,1162 538,1162 538,1106.59 538,1106.59 538,1106.59 538,1051.18 538,1051.18 538,1051.18 509.25,1050.76 509.25,1050.76 481.192,1050.35 480.323,1050.28 473.129,1047.69 451.388,1039.87 436.391,1024.92 428.263,1002.96 428.263,1002.96 425.5,995.5 425.5,995.5 425.5,995.5 425.5,816.5 425.5,816.5 425.5,816.5 425.5,637.5 425.5,637.5 425.5,637.5 428.128,629.383 428.128,629.383 434.166,610.735 446.941,595.548 463.368,587.491 477.909,580.359 480.89,579.847 511.25,579.264 511.25,579.264 538,578.751 538,578.751 538,578.751 538,777.376 538,777.376 538,777.376 538,976 538,976 538,976 574.5,976 574.5,976 574.5,976 611,976 611,976 611,976 611,777.5 611,777.5 611,777.5 611,579 611,579 611,579 1019,579 1019,579 1019,579 1427,579 1427,579 1427,579 1427,566.5 1427,566.5 1427,566.5 1427,554 1427,554 1427,554 1442.5,554 1442.5,554 1442.5,554 1458,554 1458,554 1458,554 1458,566.42 1458,566.42 1458,566.42 1458,578.84 1458,578.84 1458,578.84 1508.25,579.248 1508.25,579.248 1556.48,579.64 1558.79,579.745 1565.83,581.854 1590.16,589.147 1606.49,604.994 1614.72,629.293 1614.72,629.293 1617.5,637.5 1617.5,637.5 1617.5,637.5 1617.76,971.25 1617.76,971.25 1617.76,971.25 1618.03,1305 1618.03,1305 1618.03,1305 1385.51,1305 1385.51,1305 1385.51,1305 1153,1305 1153,1305 1153,1305 1153,1106.5 1153,1106.5 Z"/>
                    <path sodipodi:nodetypes="cccccccc" style="" d="M 1427,370.5 C 1427,370.5 1427,358 1427,358 1427,358 1442.5,358 1442.5,358 1442.5,358 1458,358 1458,358 1458,358 1458,370.5 1458,370.5 1458,370.5 1458,383 1458,383 1458,383 1442.5,383 1442.5,383 1442.5,383 1427,383 1427,383 1427,383 1427,370.5 1427,370.5 Z"/>
                </g>
            </g>
        </g>
    </g>
</svg>
